X:1
T:Title
%%score { 1 | 2 }
L:1/8
Q:1/4=100
M:4/4
K:G
V:1 treble nm="Grand Piano"
V:2 treble 
V:1
 DDGA B2 B2 | [EA][EG][CE][EG] D4 | DDGA B d3 | cBAG [FA]4 | dddB d2 B2 | [EA][EG][CE][EG] [EG]4 | %6
w: C.~E.~Rowley * * * * *||||||
 DDGA B d3 | %7
w: |
 B[EAc][DGB][CFA] G4[Q:1/4=97][Q:1/4=94][Q:1/4=91][Q:1/4=88][Q:1/4=84][Q:1/4=81][Q:1/4=78] | %8
w: |
[Q:1/4=100] dddB d2 B2 | [EA][EG][CE][EG] [EG]4 | DDGA B d3 | %11
w: |||
 B[EAc][DGB][CFA] [B,DG]4[Q:1/4=97][Q:1/4=94][Q:1/4=91][Q:1/4=88][Q:1/4=84][Q:1/4=81][Q:1/4=78] |] %12
w: |
V:2
 [G,B,][G,B,][G,B,D][G,CF] [G,DG]2 [G,DG]2 | [C,C][C,C][C,G,][C,C] [G,B,]4 | %2
 [G,B,][G,B,][K:treble][G,B,D][G,CF] [G,DG] [G,B,G]3 | [F,D][G,D][F,D][E,B,E] [D,D]4 | %4
 [G,B,G][B,G][G,B,G][G,DG] [G,B,G]2 [G,DG]2 | [C,C][C,C][C,G,][C,C] [C,C]4 | %6
 [G,B,]G,[K:treble][G,B,D][G,CF] [G,DG] [G,B,G]3 | [G,DG][K:bass]C,D,D,[K:treble] [G,B,D]4 | %8
 [G,B,G][B,G][G,B,G][G,DG] [G,B,G]2 [G,DG]2 | [C,C][C,C][C,G,][C,C] [C,C]4 | %10
 [G,B,]G,[K:treble][G,B,D][G,CF] [G,DG] [G,B,G]3 | [G,DG][K:bass]C,D,D, G,4 |] %12

